components/icon/svg/24/action_zoom-in.svg

<?xml version="1.0" encoding="UTF-8"?>
<svg width="24px" height="24px" viewBox="0 0 24 24" version="1.1" xmlns="http://www.w3.org/2000/svg" xmlns:xlink="http://www.w3.org/1999/xlink">
    <!-- Generator: Sketch 64 (93537) - https://sketch.com -->
    <title>ic-db_action_zoom-in_24</title>
    <desc>Created with Sketch.</desc>
    <g id="Symbols" stroke="none" stroke-width="1" fill="none" fill-rule="evenodd">
        <g id="24dp-Icon/Action/Zoom-In" fill="#282D37">
            <path d="M10,2 C14.4375,2 18.03125,5.58813444 18.03125,9.98752149 C18.03125,11.8595919 17.40625,13.5444597 16.34375,14.9173149 L16.34375,14.9173149 L21.71875,20.2527297 C21.90625,20.4399372 22,20.6895473 22,20.9703586 C22,21.6255849 21.46875,22 20.96875,22 C20.75,22 20.5,21.9063962 20.28125,21.6879874 L20.28125,21.6879874 L14.9375,16.3213714 C13.5625,17.3822141 11.875,18.0062393 10,18.0062393 C5.59375,18.0062393 2,14.4180948 2,9.98752149 C2,5.58813444 5.59375,2 10,2 Z M10,3.99688037 C6.6875,3.99688037 4,6.68018838 4,9.98752149 C4,13.3260509 6.6875,16.0093589 10,16.0093589 C13.34375,16.0093589 16.03125,13.3260509 16.03125,9.98752149 C16.03125,6.68018838 13.34375,3.99688037 10,3.99688037 Z M10,13.9953156 C10.5625,13.9953156 11,13.5444597 11,12.9828371 L11,11 L13,11 C13.625,11 14,10.5319712 14,10.0015598 C14,9.47112848 13.5625,9.00311963 13,9.00311963 L11,9 L11,6.92979842 C11,6.43057833 10.53125,5.99376075 10,5.99376075 C9.46875,5.99376075 9,6.43057833 9,6.99220093 L9,9.00311963 L7,9.00311963 C6.375,9.00311963 6,9.50077991 6,10 C6,10.5616226 6.4375,11 7,11 L9,11 L9,13.0140383 C9,13.5444597 9.4375,13.9953156 10,13.9953156 Z" id="🎨-Color"></path>
        </g>
    </g>
</svg>

<svg width="24" height="24" xmlns="http://www.w3.org/2000/svg"><path d="M10 2c4.438 0 8.031 3.588 8.031 7.988a7.972 7.972 0 01-1.687 4.93l5.375 5.335a.988.988 0 01.281.717c0 .656-.531 1.03-1.031 1.03-.219 0-.469-.094-.688-.312l-5.343-5.367A8 8 0 0110 18.006c-4.406 0-8-3.588-8-8.018C2 5.588 5.594 2 10 2zm0 1.997c-3.313 0-6 2.683-6 5.99 0 3.34 2.688 6.022 6 6.022a6.01 6.01 0 006.031-6.021c0-3.308-2.687-5.991-6.031-5.991zm0 9.998c.563 0 1-.45 1-1.012V11h2c.625 0 1-.468 1-.998s-.438-.999-1-.999L11 9V6.93c0-.5-.469-.936-1-.936s-1 .437-1 .998v2.011H7c-.625 0-1 .498-1 .997 0 .562.438 1 1 1h2v2.014c0 .53.438.981 1 .981z" fill="#282D37" fill-rule="evenodd"/></svg>
